X:39
T:39 The Russian Dance
C:Voice MS
I:abc2nwc
M:2/4
L:1/16
K:G
D2G2|B4D2G2|B4D2G2|c2d2B2c2|A4D2F2|A4D2F2|A4d2c2|B2c2A2B2|G4:|
d2c2|B3cB2A2|G4g2f2|e4e2^d2|e4d4|c2d2e2c2|B2G2G2B2|B2c2A2B2|G4:|


